antibot/app/images/dist/service-antibot-icon.svg

<svg width="44" height="52" viewBox="0 0 44 52" fill="none" xmlns="http://www.w3.org/2000/svg">
<g clip-path="url(#clip0_9526_13140)">
<g clip-path="url(#clip1_9526_13140)">
<mask id="mask0_9526_13140" style="mask-type:luminance" maskUnits="userSpaceOnUse" x="0" y="0" width="44" height="52">
<path d="M43.8462 0H0V51.7385H43.8462V0Z" fill="white"/>
</mask>
<g mask="url(#mask0_9526_13140)">
<path d="M41.4736 34.5189C40.0803 38.3068 38.03 41.6012 35.2434 44.2426C32.1318 47.2903 28.0313 49.7647 23.1149 51.4917C22.9488 51.5716 22.79 51.5716 22.624 51.6586C22.3785 51.7385 22.1331 51.7385 21.967 51.7385H21.8876C21.6421 51.7385 21.3967 51.7385 21.1512 51.6586C20.9852 51.6586 20.8264 51.5788 20.6603 51.4917C15.744 49.7647 11.6434 47.2903 8.53185 44.2426C5.74519 41.6085 3.6949 38.314 2.30157 34.5189C-0.246857 27.6833 -0.080813 20.1004 0.0780123 14.0848V14.0049C0.0780123 13.5115 0.0780122 13.0181 0.157425 12.3577C0.0780122 9.55674 2.37376 7.16937 5.24705 7.00247C11.1452 6.67593 15.7367 4.69492 19.6713 0.907056C20.3282 0.32654 21.144 0 21.967 0C22.79 0 23.5264 0.32654 24.1834 0.907056C28.1107 4.77474 32.7022 6.67593 38.6004 7.00247C41.4664 7.16937 43.6828 9.55674 43.7622 12.3577C43.7622 12.931 43.7622 13.4317 43.8416 14.0049C43.8488 20.1004 44.0149 27.6833 41.4736 34.5189Z" fill="#57B36E"/>
</g>
<mask id="mask1_9526_13140" style="mask-type:luminance" maskUnits="userSpaceOnUse" x="0" y="0" width="44" height="52">
<path d="M43.8462 0H0V51.7385H43.8462V0Z" fill="white"/>
</mask>
<g mask="url(#mask1_9526_13140)">
<path d="M41.4696 34.5189C40.0735 38.3068 38.0191 41.6012 35.2268 44.2426C32.1091 47.2903 28.0002 49.7647 23.074 51.4917C22.9076 51.5716 22.7485 51.5716 22.5821 51.6586C22.3362 51.7385 22.0902 51.7385 21.9238 51.7385V0C22.7485 0 23.4863 0.32654 24.1446 0.907056C28.0798 4.782 32.6805 6.67593 38.5906 7.00247C41.4624 7.16937 43.6832 9.55674 43.7628 12.3577C43.7628 12.931 43.7628 13.4317 43.8423 14.0049C43.8496 20.1004 44.0159 27.6833 41.4696 34.5189Z" fill="#57B36E"/>
</g>
<path d="M34.2003 25.8697C34.2003 32.8771 28.51 38.5851 21.5243 38.5851H21.4455C14.4598 38.5851 8.76953 32.8771 8.76953 25.8697C8.76953 18.8622 14.4598 13.1543 21.4455 13.1543H21.5243C28.51 13.1543 34.2003 18.8622 34.2003 25.8697Z" fill="white"/>
<path d="M34.2008 25.9126C34.2008 32.8964 28.6897 38.5851 21.9238 38.5851V13.1543C28.6897 13.2402 34.2008 18.9288 34.2008 25.9126Z" fill="#E1EBF0"/>
<path d="M30.3567 25.4313C30.1897 25.4313 30.0299 25.2614 30.0299 25.0989V24.2569C30.0299 19.9804 26.5654 16.4573 22.3601 16.4573C18.1547 16.4573 14.683 19.9804 14.683 24.2569V25.0989C14.683 25.2688 14.5159 25.4313 14.3561 25.4313C14.1891 25.4313 14.0293 25.2614 14.0293 25.0989V24.2569C14.0293 19.5594 17.7407 15.7852 22.3601 15.7852C26.9794 15.7852 30.6908 19.5594 30.6908 24.2569V25.0989C30.6836 25.3501 30.5165 25.4313 30.3567 25.4313Z" fill="#848484"/>
<path d="M29.4275 28.9393H28.4474C28.2497 28.9393 28.0605 28.7517 28.0605 28.5722C28.0605 28.3846 28.2583 28.2052 28.4474 28.2052H29.4275C29.7198 28.2052 29.9176 28.0175 29.9176 27.7402V25.7987C29.9176 25.6111 30.1153 25.4316 30.3044 25.4316C30.4936 25.4316 30.6913 25.6193 30.6913 25.7987V27.7402C30.5967 28.4744 30.1153 28.9393 29.4275 28.9393Z" fill="#848484"/>
<path d="M19.291 28.9395H23.6756V32.4471H19.291V28.9395Z" fill="#CBCBCB"/>
<path d="M27.9833 28.2083C28.0601 27.9599 28.0601 27.7114 28.0601 27.3752V21.7337C28.0601 19.9068 26.6358 18.416 24.8903 18.416H18.076C16.3306 18.416 14.9062 19.9068 14.9062 21.7337V27.3752C14.9062 29.2022 16.3306 30.6929 18.076 30.6929H24.9741C25.77 30.6929 26.4822 30.3641 27.0338 29.8599" fill="#E5E5E5"/>
<path d="M17.537 28.6603V30.6932C16.0124 30.3569 14.9062 28.9966 14.9062 27.3823V25.4316C16.4309 25.7754 17.537 27.046 17.537 28.6603Z" fill="#CBCBCB"/>
<path d="M28.9374 25.4316V27.3823C28.9374 27.6364 28.9374 27.9727 28.8525 28.2343L27.8023 29.9309C27.3621 30.2672 26.837 30.5213 26.3119 30.6932V28.7425C26.2193 27.0385 27.3544 25.768 28.9374 25.4316Z" fill="#CBCBCB"/>
<path d="M21.0448 23.2392C21.0448 24.4208 20.1158 25.4315 18.8525 25.4315C17.6708 25.4315 16.6602 24.5025 16.6602 23.2392C16.6602 22.0576 17.5891 21.0469 18.8525 21.0469C20.0341 21.1286 21.0448 22.0576 21.0448 23.2392Z" fill="white"/>
<path d="M27.1834 23.2392C27.1834 24.4208 26.2545 25.4315 24.9911 25.4315C23.7278 25.4315 22.7988 24.5026 22.7988 23.2392C22.7988 22.0576 23.7278 21.0469 24.9911 21.0469C26.2545 21.0395 27.1834 22.0576 27.1834 23.2392Z" fill="white"/>
<path d="M19.291 23.6777C18.8525 23.6777 18.4141 23.3315 18.4141 22.8008C18.4141 22.27 18.7602 21.9238 19.291 21.9238C19.7294 21.9238 20.1679 22.27 20.1679 22.8008C20.1679 23.3315 19.7294 23.6777 19.291 23.6777Z" fill="#444444"/>
<path d="M24.5527 23.6777C24.1142 23.6777 23.6758 23.3315 23.6758 22.8008C23.6758 22.27 24.0219 21.9238 24.5527 21.9238C25.0758 21.9238 25.4296 22.27 25.4296 22.8008C25.4296 23.3315 24.9912 23.6777 24.5527 23.6777Z" fill="#444444"/>
<path d="M16.6601 28.9442C16.6601 29.4186 16.3212 29.8163 15.9169 29.8163H15.6494C15.2451 29.8163 14.9062 29.4186 14.9062 28.9442C14.9062 28.4697 15.2451 28.072 15.6494 28.072H15.9169C16.3272 27.9952 16.6601 28.393 16.6601 28.9442Z" fill="#444444"/>
<path d="M21.0449 27.1855H21.9218V30.6932H21.0449V27.1855Z" fill="#7B7B7B"/>
<path d="M21.9219 27.1855H22.7988V30.6932H21.9219V27.1855Z" fill="#7B7B7B"/>
<path d="M23.6758 27.1855V30.6932H24.5527V28.4679C24.5527 27.789 24.237 27.2761 23.6758 27.1855Z" fill="#7B7B7B"/>
<path d="M20.1679 27.1855C19.6909 27.359 19.291 27.872 19.291 28.4679V30.6932H20.1679V27.1855Z" fill="#7B7B7B"/>
<path d="M14.9062 22.9776V26.1316C14.9062 26.6158 14.5809 27.0216 14.0822 27.1854C14.0027 27.1854 13.916 27.1854 13.757 27.1854H13.345C12.7741 27.1854 12.2754 26.7012 12.2754 26.1316V22.9776C12.2754 22.4151 12.7669 21.9238 13.345 21.9238H13.757C13.8365 21.9238 13.9232 21.9238 14.0822 21.9238C14.5809 22.0876 14.9062 22.4863 14.9062 22.9776Z" fill="#686868"/>
<path d="M14.9062 22.9776V26.1316C14.9062 26.6158 14.56 27.0216 14.0293 27.1854C13.5062 27.0216 13.1523 26.6229 13.1523 26.1316V22.9776C13.1523 22.4934 13.4985 22.0876 14.0293 21.9238C14.56 22.0876 14.9062 22.4863 14.9062 22.9776Z" fill="#7B7B7B"/>
<path d="M31.5683 22.9776V26.1316C31.5683 26.6158 31.243 27.0216 30.7443 27.1854C30.6648 27.1854 30.5781 27.1854 30.4191 27.1854H30.0072C29.4362 27.1854 28.9375 26.7012 28.9375 26.1316V22.9776C28.9375 22.4151 29.429 21.9238 30.0072 21.9238H30.4191C30.4986 21.9238 30.5853 21.9238 30.7443 21.9238C31.243 22.0876 31.5683 22.4863 31.5683 22.9776Z" fill="#686868"/>
<path d="M31.5683 22.9776V26.1316C31.5683 26.6158 31.2221 27.0216 30.6914 27.1854C30.1683 27.0216 29.8145 26.6229 29.8145 26.1316V22.9776C29.8145 22.4934 30.1606 22.0876 30.6914 21.9238C31.2221 22.0876 31.5683 22.4863 31.5683 22.9776Z" fill="#7B7B7B"/>
<path d="M27.9267 28.0625H28.1943C28.5986 28.0625 28.9374 28.4624 28.9374 28.9394C28.9374 29.4165 28.5986 29.8163 28.1943 29.8163H27.9267C27.5225 29.8163 27.1836 29.4165 27.1836 28.9394C27.1836 28.4624 27.5225 28.0625 27.9267 28.0625Z" fill="#444444"/>
<path d="M13.1523 28.6171V26.6757C13.1523 26.4881 13.3501 26.3086 13.5392 26.3086C13.737 26.3086 13.9261 26.4962 13.9261 26.6757V28.6171C13.9261 28.8945 14.1238 29.0821 14.4161 29.0821H15.3962C15.594 29.0821 15.7831 29.2697 15.7831 29.4492C15.7831 29.6368 15.5854 29.8163 15.3962 29.8163H14.4161C13.737 29.8163 13.1523 29.2616 13.1523 28.6171Z" fill="#848484"/>
<path d="M28.937 34.1065L15.7832 34.2011V34.1065C15.7832 32.7395 16.6881 31.5703 17.9188 31.5703H26.8811C27.9453 31.5703 28.937 32.7395 28.937 34.1065Z" fill="#CBCBCB"/>
<path d="M28.0602 34.1065L17.5371 34.2011V34.1065C17.5371 32.7395 18.4283 31.5703 19.6403 31.5703H26.0354C27.0835 31.5703 28.0602 32.7395 28.0602 34.1065Z" fill="#E5E5E5"/>
<path d="M21.4849 13.1543C14.9544 13.1543 9.64648 18.4622 9.64648 24.9928C9.64648 31.5233 14.9544 36.8312 21.4849 36.8312C28.0155 36.8312 33.3234 31.5233 33.3234 24.9928C33.3234 18.4622 28.0155 13.1543 21.4849 13.1543ZM21.4849 35.4431C15.7671 35.4431 11.0346 30.7897 11.0346 24.9928C11.0346 22.4611 12.0127 20.0085 13.6454 18.1313L28.3464 32.8323C26.3829 34.465 24.0166 35.4431 21.4849 35.4431ZM29.3245 31.8542L14.6235 17.1532C16.5007 15.5206 18.867 14.5424 21.4849 14.5424C27.2028 14.5424 31.9353 19.1958 31.9353 24.9928C31.9353 27.5244 30.9572 29.977 29.3245 31.8542Z" fill="#E84C4F"/>
</g>
</g>
<defs>
<clipPath id="clip0_9526_13140">
<rect width="44" height="52" fill="white"/>
</clipPath>
<clipPath id="clip1_9526_13140">
<rect width="43.8462" height="57" fill="white"/>
</clipPath>
</defs>
</svg>

<svg width="44" height="52" fill="none" xmlns="http://www.w3.org/2000/svg"><g clip-path="url(#a)"><g clip-path="url(#b)"><mask id="c" style="mask-type:luminance" maskUnits="userSpaceOnUse" x="0" y="0" width="44" height="52"><path d="M43.846 0H0v51.739h43.846V0Z" fill="#fff"/></mask><g mask="url(#c)"><path d="M41.474 34.519c-1.394 3.788-3.444 7.082-6.23 9.724-3.112 3.047-7.213 5.522-12.13 7.249-.165.08-.324.08-.49.167-.245.08-.49.08-.657.08h-.08c-.245 0-.49 0-.736-.08-.166 0-.325-.08-.49-.167-4.917-1.727-9.018-4.202-12.13-7.25-2.786-2.633-4.836-5.928-6.23-9.723C-.246 27.683-.08 20.1.079 14.085v-.08c0-.494 0-.987.08-1.647-.08-2.801 2.216-5.189 5.09-5.356C11.144 6.676 15.736 4.695 19.67.907 20.328.327 21.144 0 21.967 0c.823 0 1.56.327 2.216.907 3.928 3.868 8.52 5.769 14.417 6.095 2.866.167 5.083 2.555 5.162 5.356 0 .573 0 1.074.08 1.647.007 6.095.173 13.678-2.368 20.514Z" fill="#57B36E"/></g><mask id="d" style="mask-type:luminance" maskUnits="userSpaceOnUse" x="0" y="0" width="44" height="52"><path d="M43.846 0H0v51.739h43.846V0Z" fill="#fff"/></mask><g mask="url(#d)"><path d="M41.47 34.519c-1.396 3.788-3.45 7.082-6.243 9.724-3.118 3.047-7.227 5.522-12.153 7.249-.166.08-.326.08-.492.167-.246.08-.492.08-.658.08V0c.825 0 1.562.327 2.22.907 3.936 3.875 8.537 5.769 14.447 6.095 2.871.167 5.092 2.555 5.172 5.356 0 .573 0 1.074.08 1.647.007 6.095.173 13.678-2.373 20.514Z" fill="#57B36E"/></g><path d="M34.2 25.87c0 7.007-5.69 12.715-12.676 12.715h-.079c-6.985 0-12.675-5.708-12.675-12.715 0-7.008 5.69-12.716 12.675-12.716h.08c6.985 0 12.675 5.708 12.675 12.716Z" fill="#fff"/><path d="M34.2 25.913c0 6.983-5.51 12.672-12.276 12.672v-25.43C28.69 13.24 34.2 18.928 34.2 25.912Z" fill="#E1EBF0"/><path d="M30.357 25.431c-.167 0-.327-.17-.327-.332v-.842c0-4.277-3.465-7.8-7.67-7.8s-7.677 3.523-7.677 7.8v.842c0 .17-.167.332-.327.332-.167 0-.327-.17-.327-.332v-.842c0-4.698 3.712-8.472 8.331-8.472 4.62 0 8.33 3.774 8.33 8.472v.842c-.006.251-.174.332-.333.332Zm-.93 3.509h-.98c-.197 0-.386-.188-.386-.368 0-.187.197-.367.386-.367h.98c.293 0 .49-.188.49-.465V25.8c0-.188.198-.367.387-.367.19 0 .387.187.387.367v1.941c-.094.734-.576 1.2-1.264 1.2Z" fill="#848484"/><path d="M19.291 28.94h4.385v3.507H19.29V28.94Z" fill="#CBCBCB"/><path d="M27.983 28.208c.077-.248.077-.497.077-.833v-5.641c0-1.827-1.424-3.318-3.17-3.318h-6.814c-1.745 0-3.17 1.49-3.17 3.318v5.641c0 1.827 1.425 3.318 3.17 3.318h6.898c.796 0 1.508-.329 2.06-.833" fill="#E5E5E5"/><path d="M17.537 28.66v2.033a3.37 3.37 0 0 1-2.63-3.31v-1.951c1.524.343 2.63 1.614 2.63 3.228Zm11.4-3.228v1.95c0 .254 0 .59-.085.852l-1.05 1.697c-.44.336-.965.59-1.49.762v-1.95c-.093-1.704 1.042-2.975 2.625-3.311Z" fill="#CBCBCB"/><path d="M21.045 23.24a2.177 2.177 0 0 1-2.193 2.192 2.177 2.177 0 0 1-2.192-2.193c0-1.181.93-2.192 2.192-2.192 1.182.082 2.193 1.01 2.193 2.192Zm6.138 0a2.177 2.177 0 0 1-2.192 2.192c-1.263 0-2.192-.93-2.192-2.193 0-1.181.929-2.192 2.192-2.192 1.264-.008 2.192 1.01 2.192 2.192Z" fill="#fff"/><path d="M19.291 23.678a.876.876 0 0 1-.877-.877c0-.531.346-.877.877-.877a.876.876 0 1 1 0 1.754Zm5.262 0a.876.876 0 0 1-.877-.877c0-.531.346-.877.877-.877.523 0 .877.346.877.877 0 .53-.439.877-.877.877Zm-7.893 5.266c0 .475-.339.872-.743.872h-.268c-.404 0-.743-.397-.743-.872 0-.474.34-.872.743-.872h.268c.41-.077.743.321.743.872Z" fill="#444"/><path d="M21.045 27.186h.877v3.507h-.877v-3.508Zm.877 0h.877v3.507h-.877v-3.508Zm1.754 0v3.507h.877v-2.225c0-.679-.316-1.192-.877-1.282Zm-3.508 0c-.477.173-.877.686-.877 1.282v2.225h.877v-3.508Z" fill="#7B7B7B"/><path d="M14.906 22.978v3.154c0 .484-.325.89-.824 1.053h-.737c-.57 0-1.07-.484-1.07-1.053v-3.154c0-.563.492-1.054 1.07-1.054h.737c.499.164.824.562.824 1.054Z" fill="#686868"/><path d="M14.906 22.978v3.154c0 .484-.346.89-.877 1.053-.523-.163-.877-.562-.877-1.053v-3.154c0-.485.347-.89.877-1.054.531.164.877.562.877 1.054Z" fill="#7B7B7B"/><path d="M31.568 22.978v3.154c0 .484-.325.89-.824 1.053h-.737c-.57 0-1.07-.484-1.07-1.053v-3.154c0-.563.492-1.054 1.07-1.054h.737c.499.164.824.562.824 1.054Z" fill="#686868"/><path d="M31.568 22.978v3.154c0 .484-.346.89-.877 1.053-.523-.163-.877-.562-.877-1.053v-3.154c0-.485.347-.89.877-1.054.531.164.877.562.877 1.054Z" fill="#7B7B7B"/><path d="M27.927 28.063h.267c.405 0 .743.4.743.876 0 .477-.338.877-.743.877h-.267c-.404 0-.743-.4-.743-.877s.338-.877.743-.877Z" fill="#444"/><path d="M13.152 28.617v-1.941c0-.188.198-.367.387-.367.198 0 .387.187.387.367v1.941c0 .277.198.465.49.465h.98c.198 0 .387.188.387.367 0 .188-.198.367-.387.367h-.98c-.679 0-1.264-.554-1.264-1.199Z" fill="#848484"/><path d="m28.937 34.106-13.154.095v-.095c0-1.367.905-2.536 2.136-2.536h8.962c1.064 0 2.056 1.17 2.056 2.536Z" fill="#CBCBCB"/><path d="m28.06 34.106-10.523.095v-.095c0-1.367.891-2.536 2.103-2.536h6.395c1.049 0 2.025 1.17 2.025 2.536Z" fill="#E5E5E5"/><path d="M21.485 13.154c-6.53 0-11.839 5.308-11.839 11.839 0 6.53 5.308 11.838 11.839 11.838 6.53 0 11.838-5.308 11.838-11.838 0-6.53-5.308-11.839-11.838-11.839Zm0 22.29c-5.718 0-10.45-4.654-10.45-10.451 0-2.532.978-4.984 2.61-6.862l14.701 14.701c-1.963 1.633-4.33 2.611-6.861 2.611Zm7.84-3.59-14.701-14.7c1.877-1.633 4.243-2.612 6.86-2.612 5.719 0 10.451 4.654 10.451 10.45 0 2.532-.978 4.985-2.61 6.862Z" fill="#E84C4F"/></g></g><defs><clipPath id="a"><path fill="#fff" d="M0 0h44v52H0z"/></clipPath><clipPath id="b"><path fill="#fff" d="M0 0h43.846v57H0z"/></clipPath></defs></svg>
